dist/img/svg/fact-3.svg

<svg xmlns="http://www.w3.org/2000/svg" id="Outline" viewBox="0 0 64 64" width="512" height="512" fill="#fff"><path d="M59 8h-4V7a5 5 0 00-5-5h-6a5 5 0 00-5 5v17h-2V11a5 5 0 00-5-5h-8a5 5 0 00-5 5v.06A9 9 0 0011.06 19H8v-9a3 3 0 00-6 0v33a1 1 0 002 0V33h2v21H4v-6a1 1 0 00-2 0v13a1 1 0 001 1h21a1 1 0 001-1v-2a5 5 0 00-5-5H8V33h4.18A3 3 0 0015 35h.1a5 5 0 009.8 0h.1a3 3 0 000-6h-2v-6.38l1.45-.73A1 1 0 0025 21v-3a1 1 0 00-1.24-1L20 18l-3.76-1a1 1 0 00-.86.18A1 1 0 0015 18v3a1 1 0 00.55.89l1.45.73V26a1 1 0 002 0v-4a1 1 0 00-.55-.89L17 20.38v-1.1l2.76.69a1 1 0 00.48 0l2.76-.69v1.1l-1.45.73A1 1 0 0021 22v7h-5v-2.76a1 1 0 00-.37-.78A7 7 0 0119 13.08V15a1 1 0 002 0v-1.92a7 7 0 013.37 12.38A1 1 0 1025.63 27 9 9 0 0021 11a3 3 0 013-3h8a3 3 0 013 3v13h-1a3 3 0 000 6v3.5a1 1 0 002 0V30h3v1a1 1 0 002 0v-1h1v11a1.1 1.1 0 00.08.4l6.67 15.23a3 3 0 01.25 1.21V58a2 2 0 01-2 2H31a2 2 0 01-2-2v-.16a3 3 0 01.25-1.21l6.67-15.23A1.1 1.1 0 0036 41v-4a1 1 0 00-2 0v3.79l-6.58 15a5 5 0 00-.42 2V58a4 4 0 004 4h16a4 4 0 004-4v-.16a5 5 0 00-.42-2L44 40.79V30a3 3 0 000-6h-3V7a3 3 0 013-3h6a3 3 0 013 3v1h-4a3 3 0 000 6v25a5 5 0 0010 0V29a1 1 0 00-2 0v10a3 3 0 01-6 0V14h2v2a1 1 0 002 0v-2h2v11a1 1 0 002 0V14a3 3 0 000-6zM23 59v1H4v-4h16a3 3 0 013 3zM5 9a1 1 0 011 1v9H4v-9a1 1 0 011-1zM4 31V21h2v10zm16 6a3 3 0 01-2.83-2h5.66A3 3 0 0120 37zm6-5a1 1 0 01-1 1H15a1 1 0 010-2h10a1 1 0 011 1zm-12-5.3v2.48A3 3 0 0012.18 31H8V21h3.06A8.91 8.91 0 0014 26.7zM34 28a1 1 0 010-2h5v2zm10-2a1 1 0 010 2h-3v-2zm5-14a1 1 0 010-2h4v2zm10 0h-4v-2h4a1 1 0 010 2z"/><circle cx="54" cy="21" r="1"/><circle cx="54" cy="29" r="1"/><circle cx="54" cy="36" r="1"/><circle cx="39" cy="49" r="1"/><circle cx="44" cy="55" r="1"/><path d="M33 55a3 3 0 103-3 3 3 0 00-3 3zm4 0a1 1 0 11-1-1 1 1 0 011 1z"/></svg>

<?xml version="1.0"?>
<svg xmlns="http://www.w3.org/2000/svg" id="Outline" viewBox="0 0 64 64" width="512" height="512" style="fill: #fff;"><title>Experiment icon</title><desc>Experiment icon for website, application, printing, document, poster design, etc.</desc><metadata><?xpacket begin="﻿" id="W5M0MpCehiHzreSzNTczkc9d"?><x:xmpmeta xmlns:x="adobe:ns:meta/" x:xmptk="Adobe XMP Core 5.6-c145 79.163499, 2018/08/13-16:40:22        "><rdf:RDF xmlns:rdf="http://www.w3.org/1999/02/22-rdf-syntax-ns#"><rdf:Description xmlns:dc="http://purl.org/dc/elements/1.1/" rdf:about=""><dc:title><rdf:Alt><rdf:li xml:lang="x-default">Experiment icon</rdf:li></rdf:Alt></dc:title><dc:description><rdf:Alt><rdf:li xml:lang="x-default">Experiment icon for website, application, printing, document, poster design, etc.</rdf:li></rdf:Alt></dc:description><dc:subject><rdf:Bag><rdf:li xml:lang="x-default">Experiment</rdf:li><rdf:li>idea</rdf:li><rdf:li>bulb</rdf:li><rdf:li>business</rdf:li><rdf:li>innovation</rdf:li><rdf:li>tube</rdf:li><rdf:li>chemical</rdf:li></rdf:Bag></dc:subject></rdf:Description></rdf:RDF></x:xmpmeta><?xpacket end="w"?></metadata><path d="M59,8H55V7a5,5,0,0,0-5-5H44a5,5,0,0,0-5,5V24H37V11a5,5,0,0,0-5-5H24a5,5,0,0,0-5,5v.06A9,9,0,0,0,11.06,19H8V10a3,3,0,0,0-6,0V43a1,1,0,0,0,2,0V33H6V54H4V48a1,1,0,0,0-2,0V61a1,1,0,0,0,1,1H24a1,1,0,0,0,1-1V59a5,5,0,0,0-5-5H8V33h4.18A3,3,0,0,0,15,35h.1a5,5,0,0,0,9.8,0H25a3,3,0,0,0,0-6H23V22.62l1.45-.73A1,1,0,0,0,25,21V18a1,1,0,0,0-1.24-1L20,18,16.24,17a1,1,0,0,0-.86.18A1,1,0,0,0,15,18v3a1,1,0,0,0,.55.89l1.45.73V26a1,1,0,0,0,2,0V22a1,1,0,0,0-.55-.89L17,20.38v-1.1l2.76.69a1,1,0,0,0,.48,0L23,19.28v1.1l-1.45.73A1,1,0,0,0,21,22v7H16V26.24a1,1,0,0,0-.37-.78A7,7,0,0,1,19,13.08V15a1,1,0,0,0,2,0V13.08a7,7,0,0,1,3.37,12.38A1,1,0,1,0,25.63,27a9,9,0,0,0-4.63-16V11a3,3,0,0,1,3-3h8a3,3,0,0,1,3,3V24H34a3,3,0,0,0,0,6v3.5a1,1,0,0,0,2,0V30h3v1a1,1,0,0,0,2,0V30h1V41a1.1,1.1,0,0,0,.08.4l6.67,15.23A3,3,0,0,1,49,57.84V58a2,2,0,0,1-2,2H31a2,2,0,0,1-2-2v-.16a3,3,0,0,1,.25-1.21L35.92,41.4A1.1,1.1,0,0,0,36,41V37a1,1,0,0,0-2,0v3.79l-6.58,15a5,5,0,0,0-.42,2V58a4,4,0,0,0,4,4H47a4,4,0,0,0,4-4v-.16a5,5,0,0,0-.42-2L44,40.79V30a3,3,0,0,0,0-6H41V7a3,3,0,0,1,3-3h6a3,3,0,0,1,3,3V8H49a3,3,0,0,0,0,6V39a5,5,0,0,0,10,0V29a1,1,0,0,0-2,0V39a3,3,0,0,1-6,0V14h2v2a1,1,0,0,0,2,0V14h2V25a1,1,0,0,0,2,0V14a3,3,0,0,0,0-6ZM23,59v1H4V56H20A3,3,0,0,1,23,59ZM5,9a1,1,0,0,1,1,1v9H4V10A1,1,0,0,1,5,9ZM4,31V21H6V31Zm16,6a3,3,0,0,1-2.83-2h5.66A3,3,0,0,1,20,37Zm6-5a1,1,0,0,1-1,1H15a1,1,0,0,1,0-2H25A1,1,0,0,1,26,32ZM14,26.7v2.48A3,3,0,0,0,12.18,31H8V21h3.06A8.91,8.91,0,0,0,14,26.7ZM34,28a1,1,0,0,1,0-2h5v2Zm10-2a1,1,0,0,1,0,2H41V26Zm5-14a1,1,0,0,1,0-2h4v2Zm10,0H55V10h4a1,1,0,0,1,0,2Z"/><circle cx="54" cy="21" r="1"/><circle cx="54" cy="29" r="1"/><circle cx="54" cy="36" r="1"/><circle cx="39" cy="49" r="1"/><circle cx="44" cy="55" r="1"/><path d="M33,55a3,3,0,1,0,3-3A3,3,0,0,0,33,55Zm4,0a1,1,0,1,1-1-1A1,1,0,0,1,37,55Z"/></svg>
